img/icon/printerist.svg

<svg width="60" height="61" viewBox="0 0 60 61" fill="none" xmlns="http://www.w3.org/2000/svg">
<g id="4">
<circle id="Ellipse" cx="30" cy="30.7158" r="30" fill="#EFF6F1"/>
<g id="Pintrest">
<path id="Vector" d="M29.7966 20.7158C24.3866 20.7158 20 25.1005 20 30.5081C20 34.5168 22.4142 37.9616 25.8649 39.4785C25.8386 38.7965 25.8605 37.9747 26.0354 37.2315C26.2235 36.4359 27.295 31.8939 27.295 31.8939C27.295 31.8939 26.9801 31.2687 26.9801 30.3463C26.9801 28.895 27.8198 27.8108 28.8695 27.8108C29.7617 27.8108 30.1903 28.4797 30.1903 29.2797C30.1903 30.1758 29.6173 31.5135 29.3243 32.7551C29.0794 33.7955 29.8447 34.6392 30.8725 34.6392C32.7269 34.6392 33.9777 32.2567 33.9777 29.4327C33.9777 27.2863 32.5301 25.6819 29.9016 25.6819C26.932 25.6819 25.0776 27.8983 25.0776 30.3726C25.0776 31.225 25.3313 31.8283 25.7249 32.2917C25.9042 32.5059 25.9305 32.5933 25.8649 32.8381C25.8168 33.0174 25.7118 33.4501 25.6637 33.625C25.5981 33.8742 25.3969 33.9616 25.1738 33.8698C23.8049 33.3102 23.1664 31.8152 23.1664 30.1278C23.1664 27.3475 25.515 24.012 30.1684 24.012C33.9077 24.012 36.37 26.718 36.37 29.6207C36.37 33.4633 34.2314 36.331 31.0824 36.331C30.0241 36.331 29.0313 35.7583 28.6901 35.1113C28.6901 35.1113 28.1216 37.367 27.9991 37.8042C27.7936 38.5605 27.3868 39.3124 27.0151 39.9025C27.9169 40.1684 28.8521 40.3039 29.7923 40.3047C35.2023 40.3047 39.5889 35.9201 39.5889 30.5125C39.5889 25.1049 35.2067 20.7158 29.7966 20.7158Z" fill="#274C5B"/>
</g>
</g>
</svg>

<svg width="60" height="61" fill="none" xmlns="http://www.w3.org/2000/svg"><circle cx="30" cy="30.716" r="30" fill="#EFF6F1"/><path d="M29.797 20.716c-5.41 0-9.797 4.384-9.797 9.792 0 4.009 2.414 7.454 5.865 8.97-.026-.681-.005-1.503.17-2.247.189-.795 1.26-5.337 1.26-5.337s-.315-.625-.315-1.548c0-1.451.84-2.535 1.89-2.535.892 0 1.32.669 1.32 1.469 0 .896-.573 2.233-.866 3.475-.245 1.04.52 1.884 1.548 1.884 1.855 0 3.106-2.382 3.106-5.206 0-2.147-1.448-3.751-4.076-3.751-2.97 0-4.824 2.216-4.824 4.69 0 .853.253 1.456.647 1.92.18.214.205.301.14.546-.048.18-.153.612-.201.787-.066.25-.267.337-.49.245-1.37-.56-2.008-2.055-2.008-3.742 0-2.78 2.349-6.116 7.002-6.116 3.74 0 6.202 2.706 6.202 5.609 0 3.842-2.139 6.71-5.288 6.71-1.058 0-2.05-.573-2.392-1.22 0 0-.568 2.256-.69 2.693-.206.756-.613 1.508-.985 2.099a9.85 9.85 0 002.777.402c5.41 0 9.797-4.385 9.797-9.793 0-5.407-4.382-9.796-9.792-9.796z" fill="#274C5B"/></svg>
